Adwaita++/actions/22/reconcile-finish.svg

<svg height="22" width="22" xmlns="http://www.w3.org/2000/svg">
  <g fill="#444">
    <path d="m5 3v1h5v13h-3v2h7.455078l-1.080078-.863281a1.0001 1.0001 0 0 1 -.310547-1.136719h-1.064453v-13h5v-1zm0 1.0214844-2.9648438 6.9785156h-.0351562c0 .022027.005387.042539.0058594.064453l-.015625.039063.0214844.009765c.0608252 1.603207 1.3701892 2.886719 2.9882812 2.886719s2.9274559-1.283512 2.9882812-2.886719l.0214844-.009765-.015625-.039063c.0004724-.021914.0058594-.042426.0058594-.064453h-.0351562zm12 0-2.964844 6.9785156h-.02539-.009766c0 .022027.005387.042539.005859.064453l-.015625.039063.021485.009765c.053346 1.406092 1.068099 2.564092 2.408203 2.828125.188901.037851.383806.058204.583984.058594.001989.000004.00387 0 .00586 0 .226774 0 .444191-.03231.65625-.080078 1.301037-.293067 2.27973-1.428122 2.332031-2.806641l.021484-.009765-.015625-.039063c.000472-.02188.00586-.042423.00586-.064453h-.009766-.025391l-2.964843-6.9785156-.00586.0117187zm-12 2.5585937 1.8789062 4.4199219h-3.7578124zm12.003906.0117188 1.875 4.4082031h-3.748047z"/>
    <path d="m19.324219 13.97461-2.38086 3.173828-1.693359-1.355469-1.25 1.5625 3.306641 2.644531 3.61914-4.826172z"/>
  </g>
</svg>

<svg xmlns="http://www.w3.org/2000/svg" width="22" height="22" version="1.1">
 <defs>
  <style id="current-color-scheme" type="text/css">
   .ColorScheme-Text { color:#444444; } .ColorScheme-Highlight { color:#4285f4; }
  </style>
 </defs>
 <path style="fill:currentColor" class="ColorScheme-Text" d="M 5 3 L 5 4 L 10 4 L 10 17 L 7 17 L 7 19 L 14.455078 19 L 13.375 18.136719 A 1.0001 1.0001 0 0 1 13.064453 17 L 12 17 L 12 4 L 17 4 L 17 3 L 5 3 z M 5 4.0214844 L 2.0351562 11 L 2 11 C 2 11.022027 2.005387 11.042539 2.0058594 11.064453 L 1.9902344 11.103516 L 2.0117188 11.113281 C 2.072544 12.716488 3.381908 14 5 14 C 6.618092 14 7.9274559 12.716488 7.9882812 11.113281 L 8.0097656 11.103516 L 7.9941406 11.064453 C 7.994613 11.042539 8 11.022027 8 11 L 7.9648438 11 L 5 4.0214844 z M 17 4.0214844 L 14.035156 11 L 14.009766 11 L 14 11 C 14 11.022027 14.005387 11.042539 14.005859 11.064453 L 13.990234 11.103516 L 14.011719 11.113281 C 14.065065 12.519373 15.079818 13.677373 16.419922 13.941406 C 16.608823 13.979257 16.803728 13.99961 17.003906 14 C 17.005895 14.000004 17.007776 14 17.009766 14 C 17.23654 14 17.453957 13.96769 17.666016 13.919922 C 18.967053 13.626855 19.945746 12.4918 19.998047 11.113281 L 20.019531 11.103516 L 20.003906 11.064453 C 20.004378 11.042573 20.009766 11.02203 20.009766 11 L 20 11 L 19.974609 11 L 17.009766 4.0214844 L 17.003906 4.0332031 L 17 4.0214844 z M 5 6.5800781 L 6.8789062 11 L 3.1210938 11 L 5 6.5800781 z M 17.003906 6.5917969 L 18.878906 11 L 15.130859 11 L 17.003906 6.5917969 z"/>
 <path style="fill:currentColor" class="ColorScheme-Text" d="M 19.324219,13.97461 16.943359,17.148438 15.25,15.792969 14,17.355469 17.306641,20 l 3.61914,-4.826172 z"/>
</svg>
